X:5492
T:Reel Indien
O:england
M:2/4
L:1/16
C:Trad.
R:Reel
K:G
Bc|:d2fd   B2dB|G2BG   D2DF|A2AB  cBcA|GFGA BABc|
d2fd   B2dB|G2BG   D2DF|A2AB  cAFA|1G2B2   G2Bc:|2G2B2 G2GB||
K:C
c2Gc   e2ce|g6    gf|eceg fedc|BGAB cBAG|
c2Gc   e2ce|g6    gf|eceg fedc|1BGAB  c2GB:|2BGAB  c2 z2||


